X:60
T:Tarantella Calabria
C:Trad/Arr Ed Rennie
Q:1/4=160
I:abc2nwc
M:6/8
L:1/8
K:G
B2c|ded cBA|G2B BAG|F2A c2e|d2B B2c|ded cBA|G2B d2g|fed cBA|G3:|
|:G2A|B2B BAB|c2F F2c|c2c cBc|d2zdef|[1gfe dcB|
A4zG|D3F3|G3:|[2gfe dcB|A3f2e|ded cBA|G2d d^cd|]
|:B2d d^cd|c2d d^cd|c2d c2d|B2d d^cd|
B2d d^cd|c2d d^cd|fed cBA|[1G2d d^cd:|[2G3z3|]


